admin/assets/img/icons/icon-show-love.svg

<svg enable-background="new 0 0 500 500" viewBox="0 0 500 500" xmlns="http://www.w3.org/2000/svg" xmlns:xlink="http://www.w3.org/1999/xlink"><linearGradient id="a" gradientUnits="userSpaceOnUse" x1="-.003528" x2="500" y1="251.0002" y2="251.0002"><stop offset="0" stop-color="#5725ff"/><stop offset="1" stop-color="#9271ff"/></linearGradient><path d="m460.77 80.19c-26.49-27.09-61.93-42.02-99.78-42.02-37.27 0-72.32 14.52-98.68 40.88l-12.05 12.05-12.06-12.05c-26.36-26.36-61.4-40.88-98.66-40.88-37.27 0-72.32 14.52-98.67 40.88-26.36 26.35-40.87 61.39-40.87 98.66s14.51 72.31 40.87 98.67l171.98 171.98c9.98 9.97 23.26 15.47 37.4 15.47 14.15 0 27.43-5.5 37.4-15.47l170.87-170.86c54.42-54.41 55.42-142.93 2.25-197.31zm-321.23-12.67c29.42 0 57.09 11.46 77.9 32.28l12.07 12.07-19.21 19.22c-5.72 5.72-5.72 15.03.01 20.76 2.77 2.77 6.46 4.29 10.37 4.29 3.92 0 7.61-1.53 10.38-4.3l52-52.04c20.81-20.82 48.49-32.28 77.92-32.28 29.89 0 57.87 11.79 78.8 33.18 41.99 42.94 41.09 112.94-2.02 156.04l-170.87 170.87c-4.44 4.44-10.35 6.88-16.64 6.88-6.3 0-12.21-2.44-16.64-6.88l-171.99-171.99c-20.81-20.81-32.27-48.48-32.27-77.91s11.46-57.1 32.27-77.91 48.49-32.28 77.92-32.28z" fill="url(#a)"/></svg>

<?xml version="1.0" encoding="utf-8"?>
<!-- Generator: Adobe Illustrator 23.0.0, SVG Export Plug-In . SVG Version: 6.00 Build 0)  -->
<svg version="1.1" id="Layer_1" xmlns="http://www.w3.org/2000/svg" xmlns:xlink="http://www.w3.org/1999/xlink" x="0px" y="0px"
	 viewBox="0 0 500 500" style="enable-background:new 0 0 500 500;" xml:space="preserve">
<style type="text/css">
	.st0{fill:url(#SVGID_1_);}
</style>
<linearGradient id="SVGID_1_" gradientUnits="userSpaceOnUse" x1="-3.527677e-03" y1="251.0002" x2="500" y2="251.0002">
	<stop  offset="0" style="stop-color:#5725FF"/>
	<stop  offset="1" style="stop-color:#9271FF"/>
</linearGradient>
<path class="st0" d="M460.77,80.19c-26.49-27.09-61.93-42.02-99.78-42.02c-37.27,0-72.32,14.52-98.68,40.88l-12.05,12.05
	L238.2,79.05c-26.36-26.36-61.4-40.88-98.66-40.88c-37.27,0-72.32,14.52-98.67,40.88C14.51,105.4,0,140.44,0,177.71
	s14.51,72.31,40.87,98.67l171.98,171.98c9.98,9.97,23.26,15.47,37.4,15.47c14.15,0,27.43-5.5,37.4-15.47L458.52,277.5
	C512.94,223.09,513.94,134.57,460.77,80.19z M139.54,67.52c29.42,0,57.09,11.46,77.9,32.28l12.07,12.07l-19.21,19.22
	c-5.72,5.72-5.72,15.03,0.01,20.76c2.77,2.77,6.46,4.29,10.37,4.29c3.92,0,7.61-1.53,10.38-4.3l52-52.04
	c20.81-20.82,48.49-32.28,77.92-32.28c29.89,0,57.87,11.79,78.8,33.18c41.99,42.94,41.09,112.94-2.02,156.04L266.89,427.61
	c-4.44,4.44-10.35,6.88-16.64,6.88c-6.3,0-12.21-2.44-16.64-6.88L61.62,255.62c-20.81-20.81-32.27-48.48-32.27-77.91
	c0-29.43,11.46-57.1,32.27-77.91C82.43,78.99,110.11,67.52,139.54,67.52z"/>
</svg>
